svg/emoji_u1f973.svg

<svg xmlns="http://www.w3.org/2000/svg" xmlns:xlink="http://www.w3.org/1999/xlink" width="128" height="128"><defs><linearGradient gradientTransform="translate(-.984 -3.595)" xlink:href="#a" id="b" x1="95.743" y1="70.878" x2="95.743" y2="82.469" gradientUnits="userSpaceOnUse"/><linearGradient id="a"><stop offset="0" stop-color="#fff"/><stop offset="1" stop-color="#fff" stop-opacity=".787"/></linearGradient></defs><path d="M33.983 64.788c-1 .01-1.794.21-2.525.681h-.002c-.302.195-.547.502-.671 1.381-.125.88-.003 2.216.452 3.733.522 1.74 1.476 3.704 2.738 5.611 6.878 1.122 27.836 3.656 60.168-.18 1.203-1.85 2.115-3.745 2.62-5.431.454-1.517.576-2.855.452-3.735-.124-.88-.37-1.185-.669-1.379-.974-.628-2.061-.774-3.602-.632-1.541.141-3.379.63-5.319 1.011l.002-.002C77.305 67.882 68.27 67.96 64.002 67.96c-4.268 0-13.3-.078-23.623-2.114v.002c-1.94-.382-3.778-.87-5.32-1.011a10.564 10.564 0 0 0-1.076-.05z" fill="#fff" stroke-width="1.3"/><path d="M63.89 9.64C1.58 9.64.1 79.5.1 93.33c0 13.83 28.56 25.03 63.79 25.03 35.24 0 63.79-11.21 63.79-25.03 0-13.83-1.47-83.69-63.79-83.69z" fill="#fcc21b"/><path d="M31.96 51.85a2.728 2.728 0 0 1-3.73.93 2.72 2.72 0 0 1-.96-3.71c.18-.31 4.6-7.62 14.37-7.62 9.78 0 14.2 7.31 14.39 7.62a2.735 2.735 0 0 1-2.36 4.11c-.92 0-1.83-.47-2.34-1.32-.13-.22-3.12-4.96-9.69-4.96-6.57-.01-9.54 4.74-9.68 4.95zM100 52.79c-.43.26-.91.38-1.37.38-.94 0-1.85-.49-2.36-1.34-.11-.2-3.08-4.94-9.66-4.94-6.69 0-9.66 4.89-9.69 4.94a2.724 2.724 0 0 1-4.69-2.77c.18-.31 4.6-7.62 14.38-7.62 9.77 0 14.18 7.31 14.36 7.62.76 1.3.32 2.97-.97 3.73z" fill="#2f2f2f"/><path d="M73.237 23.426l34.013-20.92-5.998 40.133S87.293 38.02 73.237 23.426z" fill="#3183ec" fill-rule="evenodd" stroke-width="3.78" stroke-linecap="round" stroke-linejoin="round"/><path d="M81.404 18.402l-7.449 4.582 28.512 11.522 1.07-7.158-22.133-8.946zM94.994 10.045l-7.45 4.58 16.876 6.82 1.07-7.16-10.496-4.24zM107.25 2.506l-7.053 4.338 6.04 2.441 1.013-6.78z" fill="#ec6a31"/><path d="M68.865 113.984c-.691-.616-1.774-1.243-2.571-1.553-.891-.357-1.866-.673-2.799-.789-1.314-.154-1.196.733-1.588 2.153-.278.979-.68 1.8-.9 2.801-.233 1.054-.417 2.126-.657 3.175-.572 2.459-.625 3.833 1.485 4.554 1.523.517 3.13.808 4.68 1.214.46-.225.617-1.116.724-1.655.191-.95.499-1.818.727-2.746.427-1.666.937-3.373 1.262-5.067.18-.853.234-1.564-.363-2.087zM21.425 61.177c1.239-.194 2.635.198 3.201-1.602.532-1.693.079-3.767.096-5.536.014-1.143-.36-2.213-1.095-2.904-.837-.788-1.767-.774-2.78-.718-.761.038-1.555-.119-2.312-.182-.783-.069-1.57.08-2.35.026-.545-.049-.477-.1-.844.312a4.256 4.256 0 0 0-.537.876c-.701 1.599-.091 4.189.209 5.853.23 1.33-.154 3.465 1.091 3.995.921.399 2.06.176 3.012.13a26.445 26.445 0 0 0 2.309-.25z" fill="#fd3353"/><path d="M90.554 7.742c.326.261 2.6 3.188 2.83 2.878.503-.722 1.137-1.304 1.659-2.027.597-.838 1.161-1.732 1.89-2.407.88-.813.934-1.616.632-2.375-.43-1.07-1.587-2.046-2.22-2.825-.496-.61-1.112-1.18-1.745-.923-.717.3-1.39 1.114-1.907 1.757-.65.805-1.54 1.6-2.022 2.545-.674 1.28.007 2.657.883 3.377zM94.637 79.654c-.929.934-1.655 1.948-2.445 3.003-.283.37-.57.541-.56 1.117.001.734.57 1.902.896 2.512.82 1.476 1.709 2.74 2.688 4.012.521.685 1.21 2.183 1.973 2.391.647.17 1.418-.63 1.901-1.05.638-.569 1.374-1.03 1.97-1.636.763-.781 1.708-1.915 2.276-2.911.318-.547.293-1.086.117-1.602-.156-.47-.434-.922-.681-1.355-1.285-2.207-3.343-5.222-5.377-6.43-.962-.575-2.07 1.26-2.758 1.949z" fill="#50e740"/><path d="M104.008 25.016c-1.118.153-2.132.278-3.254.58-1.086.302-1.464.764-1.215 2.117.144.846.172 1.724.357 2.561.167.79.478 1.554.66 2.353.134.572.112 1.524.427 2 .446.661 1.204.33 1.784.203.723-.155 1.446-.17 2.189-.371.938-.265 1.862-.61 2.789-.986.758-.308 1.839-.577 2.518-1.039a1.51 1.51 0 0 0 .442-.504c.443-.783.462-2.028.415-2.883-.06-1.166-.343-2.435-.584-3.574-.383-1.786-2.037-1.315-3.175-1.115-1.107.218-2.215.505-3.353.658z" fill="#fd3353"/><path d="M121.514 36.006c-.795.284-1.764.647-2.428 1.326-.593.597-.36 1.731-.305 2.544.06.911.333 1.79.624 2.623.273.763.515 1.716.912 2.405.45.792.91.38 1.51.044.728-.396 1.474-.792 2.25-1.03 1.056-.32 2.201-.585 3.215-.989.347-.133.544-.43.635-.814.301-1.197-.42-3.286-.567-4.193-.111-.72-.31-1.984-.78-2.474-.522-.57-1.279-.494-1.934-.436-1.058.097-2.091.617-3.132.994z" fill="#50e740"/><g stroke-width="1.224"><path d="M90.512 65.403c-2.524-1.706-5.7-.58-8.51 0-7.824 1.617-14.7 1.683-18 1.683-3.3 0-10.176-.066-18-1.683-2.81-.58-5.987-1.706-8.51 0-3.202 2.165-.841 9.923 4.198 15.166 3.046 3.17 10.298 9.319 22.312 9.319 12.013 0 19.266-6.15 22.312-9.319 5.039-5.243 7.391-13.001 4.198-15.166z" fill="#ec6c31" stroke-width="6.122"/><path d="M34.369 67.284c-.956.01-1.712.21-2.41.682h-.002c-.288.194-.522.5-.64 1.379-.12.879-.003 2.216.43 3.732.118.41.26.832.42 1.262a44.377 16.047 0 0 0 30.849 4.535 44.377 16.047 0 0 0 30.837-4.51c.164-.438.311-.868.43-1.285.433-1.517.55-2.854.432-3.734-.118-.879-.352-1.186-.637-1.38-.93-.628-1.968-.774-3.44-.632-1.47.142-3.223.628-5.074 1.01-9.85 2.036-18.474 2.111-22.547 2.111s-12.693-.075-22.544-2.111c-1.852-.382-3.606-.868-5.077-1.01a9.628 9.628 0 0 0-1.027-.049z" fill="url(#b)" stroke-width=".955" stroke-linejoin="round" transform="matrix(.8167 0 0 .8167 12.536 11.588)"/></g><path style="line-height:normal;font-variant-ligatures:normal;font-variant-position:normal;font-variant-caps:normal;font-variant-numeric:normal;font-variant-alternates:normal;font-feature-settings:normal;text-indent:0;text-align:start;text-decoration-line:none;text-decoration-style:solid;text-decoration-color:#000;text-transform:none;text-orientation:mixed;shape-padding:0;isolation:auto;mix-blend-mode:normal" d="M12.92 66.283c-.441.01-.89.045-1.342.104-7.23.945-12.402 7.726-11.47 15.045.842 6.6 6.38 11.491 12.762 11.697 4.964-.673 4.246-.533 5.106-.643L60.583 87.7c2.257-.254 3.271-4.136 2.98-6.416-.29-2.28-1.361-5.227-3.613-4.933l-18.246 2.383c-9.125.961-13.968 1.652-21.426 4.142-1.388.493-2.422 1.386-3.672 2.174-1.404.75-1.656.883-3.99.931-2.823-.286-5.134-2.472-5.515-5.463-.446-3.495 1.926-6.606 5.379-7.057 3.283-.428 4.927 5.94 6.093 5.73l6.782-1.229c-.012-5.858-6.159-11.835-12.434-11.68z" color="#000" font-weight="400" font-family="sans-serif" white-space="normal" overflow="visible" fill="#0083bd" stroke-width="6"/><g fill="#ff6b22" stroke-width="3.6" stroke-linecap="round" stroke-linejoin="round" paint-order="stroke fill markers"><path d="M57.298 76.698l-8.201 1.072v11.22l8.201-.921zM42.424 78.641l-.72.093c-2.85.3-5.257.58-7.481.89v11.037l8.201-.92zM29.921 80.323c-2.678.51-5.272 1.17-8.2 2.096v9.645l8.2-.92zM8.572 83.836L6.377 91.15a13.14 13.14 0 0 0 6.493 1.98c.931-.127.956-.125 1.535-.201l2.406-8.016c-.07.046-.134.092-.206.137-1.404.75-1.655.885-3.99.933-1.605-.163-3.03-.956-4.043-2.147zM1.894 72.857a13.465 13.465 0 0 0-1.83 7.996l7.744 1.887a6.446 6.446 0 0 1-.707-2.222c-.298-2.339.67-4.5 2.375-5.813zM20.395 68.941l-7.179 4.551c2.798.508 4.282 5.894 5.356 5.7l1.358-.247L25.05 75.7c-.667-2.575-2.396-5.007-4.656-6.758z" opacity=".85" paint-order="stroke fill markers"/></g><g fill="#dd82ff" stroke-width="3.6" stroke-linecap="round" stroke-linejoin="round" paint-order="stroke fill markers"><path d="M57.298 76.698l-8.201 1.072v11.22l8.201-.921zM42.424 78.641l-.72.093c-2.85.3-5.257.58-7.481.89v11.037l8.201-.92zM29.921 80.323c-2.678.51-5.272 1.17-8.2 2.096v9.645l8.2-.92zM8.572 83.836L6.377 91.15a13.14 13.14 0 0 0 6.493 1.98c.931-.127.956-.125 1.535-.201l2.406-8.016c-.07.046-.134.092-.206.137-1.404.75-1.655.885-3.99.933-1.605-.163-3.03-.956-4.043-2.147zM1.894 72.857a13.465 13.465 0 0 0-1.83 7.996l7.744 1.887a6.446 6.446 0 0 1-.707-2.222c-.298-2.339.67-4.5 2.375-5.813zM20.395 68.941l-7.179 4.551c2.798.508 4.282 5.894 5.356 5.7l1.358-.247L25.05 75.7c-.667-2.575-2.396-5.007-4.656-6.758z" opacity=".85" paint-order="stroke fill markers"/></g><path d="M7.7 75.366c.2-.143.351-.305.45-.477.544-.894-.152-2.142-.458-3.309-.346-1.39-.47-2.863-.917-4.212-.497-1.461-1.57-1.234-2.423-.578-.925.716-1.932 1.241-2.875 1.933-.845.614-1.566 1.085-1.468 2.414.09 1.208.701 2.228 1.127 3.284.8 1.964 1.015 4.599 3.22 3.517 1.237-.603 2.205-1.77 3.344-2.572zM51.253 87.829c-.798-.055-.985.91-1.48 1.66-1.113 1.658-1.853 3.583-2.638 5.502-.292.714-1.25 2.387-.94 3.22.255.67 1.233.836 1.745 1.085l2 .966c.316.15 2.259 1.44 2.553 1.228.513-.355.787-1.464 1.03-2.08.429-1.141.768-2.315 1.234-3.456.603-1.474 1.24-3.078 1.539-4.684-.87-1.17-2.047-1.728-3.227-2.462-.549-.342-1.195-.93-1.816-.98z" fill="#50e740"/></svg>

<?xml version="1.0" encoding="UTF-8" standalone="no"?>
<!DOCTYPE svg PUBLIC "-//W3C//DTD SVG 1.1//EN" "http://www.w3.org/Graphics/SVG/1.1/DTD/svg11.dtd">
<svg width="100%" height="100%" viewBox="0 0 128 128" version="1.1" xmlns="http://www.w3.org/2000/svg" xmlns:xlink="http://www.w3.org/1999/xlink" xml:space="preserve" xmlns:serif="http://www.serif.com/" style="fill-rule:evenodd;clip-rule:evenodd;stroke-linejoin:round;stroke-miterlimit:2;">
    <path d="M33.983,64.788C32.983,64.798 32.189,64.998 31.458,65.469L31.456,65.469C31.154,65.664 30.909,65.971 30.785,66.85C30.66,67.73 30.782,69.066 31.237,70.583C31.759,72.323 32.713,74.287 33.975,76.194C40.853,77.316 61.811,79.85 94.143,76.014C95.346,74.164 96.258,72.269 96.763,70.583C97.217,69.066 97.339,67.728 97.215,66.848C97.091,65.968 96.845,65.663 96.546,65.469C95.572,64.841 94.485,64.695 92.944,64.837C91.403,64.978 89.565,65.467 87.625,65.848L87.627,65.846C77.305,67.882 68.27,67.96 64.002,67.96C59.734,67.96 50.702,67.882 40.379,65.846L40.379,65.848C38.439,65.466 36.601,64.978 35.059,64.837C34.701,64.802 34.342,64.785 33.983,64.787L33.983,64.788Z" style="fill:white;fill-rule:nonzero;"/>
    <path d="M63.89,9.64C1.58,9.64 0.1,79.5 0.1,93.33C0.1,107.16 28.66,118.36 63.89,118.36C99.13,118.36 127.68,107.15 127.68,93.33C127.68,79.5 126.21,9.64 63.89,9.64Z" style="fill:rgb(252,194,27);fill-rule:nonzero;"/>
    <path d="M31.96,51.85C31.188,53.124 29.509,53.542 28.23,52.78C26.954,52.022 26.522,50.352 27.27,49.07C27.45,48.76 31.87,41.45 41.64,41.45C51.42,41.45 55.84,48.76 56.03,49.07C56.273,49.488 56.401,49.962 56.401,50.445C56.401,51.944 55.169,53.178 53.67,53.18C52.75,53.18 51.84,52.71 51.33,51.86C51.2,51.64 48.21,46.9 41.64,46.9C35.07,46.89 32.1,51.64 31.96,51.85ZM100,52.79C99.57,53.05 99.09,53.17 98.63,53.17C97.69,53.17 96.78,52.68 96.27,51.83C96.16,51.63 93.19,46.89 86.61,46.89C79.92,46.89 76.95,51.78 76.92,51.83C76.424,52.632 75.546,53.122 74.603,53.122C73.108,53.122 71.879,51.893 71.879,50.398C71.879,49.929 72,49.468 72.23,49.06C72.41,48.75 76.83,41.44 86.61,41.44C96.38,41.44 100.79,48.75 100.97,49.06C101.73,50.36 101.29,52.03 100,52.79Z" style="fill:rgb(47,47,47);fill-rule:nonzero;"/>
    <path d="M73.237,23.426L107.25,2.506L101.252,42.639C101.252,42.639 87.293,38.02 73.237,23.426Z" style="fill:rgb(49,131,236);"/>
    <path d="M81.404,18.402L73.955,22.984L102.467,34.506L103.537,27.348L81.404,18.402ZM94.994,10.045L87.544,14.625L104.42,21.445L105.49,14.285L94.994,10.045ZM107.25,2.506L100.197,6.844L106.237,9.285L107.25,2.505L107.25,2.506Z" style="fill:rgb(236,106,49);fill-rule:nonzero;"/>
    <path d="M68.865,113.984C68.174,113.368 67.091,112.741 66.294,112.431C65.403,112.074 64.428,111.758 63.495,111.642C62.181,111.488 62.299,112.375 61.907,113.795C61.629,114.774 61.227,115.595 61.007,116.596C60.774,117.65 60.59,118.722 60.35,119.771C59.778,122.23 59.725,123.604 61.835,124.325C63.358,124.842 64.965,125.133 66.515,125.539C66.975,125.314 67.132,124.423 67.239,123.884C67.43,122.934 67.738,122.066 67.966,121.138C68.393,119.472 68.903,117.765 69.228,116.071C69.408,115.218 69.462,114.507 68.865,113.984ZM21.425,61.177C22.664,60.983 24.06,61.375 24.626,59.575C25.158,57.882 24.705,55.808 24.722,54.039C24.736,52.896 24.362,51.826 23.627,51.135C22.79,50.347 21.86,50.361 20.847,50.417C20.086,50.455 19.292,50.298 18.535,50.235C17.752,50.166 16.965,50.315 16.185,50.261C15.64,50.212 15.708,50.161 15.341,50.573C15.127,50.842 14.947,51.136 14.804,51.449C14.103,53.048 14.713,55.638 15.013,57.302C15.243,58.632 14.859,60.767 16.104,61.297C17.025,61.696 18.164,61.473 19.116,61.427C19.889,61.378 20.659,61.294 21.425,61.177Z" style="fill:rgb(253,51,83);fill-rule:nonzero;"/>
    <path d="M90.554,7.742C90.88,8.003 93.154,10.93 93.384,10.62C93.887,9.898 94.521,9.316 95.043,8.593C95.64,7.755 96.204,6.861 96.933,6.186C97.813,5.373 97.867,4.57 97.565,3.811C97.135,2.741 95.978,1.765 95.345,0.986C94.849,0.376 94.233,-0.194 93.6,0.063C92.883,0.363 92.21,1.177 91.693,1.82C91.043,2.625 90.153,3.42 89.671,4.365C88.997,5.645 89.678,7.022 90.554,7.742ZM94.637,79.654C93.708,80.588 92.982,81.602 92.192,82.657C91.909,83.027 91.622,83.198 91.632,83.774C91.633,84.508 92.202,85.676 92.528,86.286C93.348,87.762 94.237,89.026 95.216,90.298C95.737,90.983 96.426,92.481 97.189,92.689C97.836,92.859 98.607,92.059 99.09,91.639C99.728,91.07 100.464,90.609 101.06,90.003C101.823,89.222 102.768,88.088 103.336,87.092C103.654,86.545 103.629,86.006 103.453,85.49C103.297,85.02 103.019,84.568 102.772,84.135C101.487,81.928 99.429,78.913 97.395,77.705C96.433,77.13 95.325,78.965 94.637,79.654Z" style="fill:rgb(80,231,64);fill-rule:nonzero;"/>
    <path d="M104.008,25.016C102.89,25.169 101.876,25.294 100.754,25.596C99.668,25.898 99.29,26.36 99.539,27.713C99.683,28.559 99.711,29.437 99.896,30.274C100.063,31.064 100.374,31.828 100.556,32.627C100.69,33.199 100.668,34.151 100.983,34.627C101.429,35.288 102.187,34.957 102.767,34.83C103.49,34.675 104.213,34.66 104.956,34.459C105.894,34.194 106.818,33.849 107.745,33.473C108.503,33.165 109.584,32.896 110.263,32.434C110.446,32.301 110.597,32.129 110.705,31.93C111.148,31.147 111.167,29.902 111.12,29.047C111.06,27.881 110.777,26.612 110.536,25.473C110.153,23.687 108.499,24.158 107.361,24.358C106.254,24.576 105.146,24.863 104.008,25.016Z" style="fill:rgb(253,51,83);fill-rule:nonzero;"/>
    <path d="M121.514,36.006C120.719,36.29 119.75,36.653 119.086,37.332C118.493,37.929 118.726,39.063 118.781,39.876C118.841,40.787 119.114,41.666 119.405,42.499C119.678,43.262 119.92,44.215 120.317,44.904C120.767,45.696 121.227,45.284 121.827,44.948C122.555,44.552 123.301,44.156 124.077,43.918C125.133,43.598 126.278,43.333 127.292,42.929C127.639,42.796 127.836,42.499 127.927,42.115C128.228,40.918 127.507,38.829 127.36,37.922C127.249,37.202 127.05,35.938 126.58,35.448C126.058,34.878 125.301,34.954 124.646,35.012C123.588,35.109 122.555,35.629 121.514,36.006Z" style="fill:rgb(80,231,64);fill-rule:nonzero;"/>
    <g transform="matrix(1.2939,0,0,1,-19.0164,0)">
        <ellipse cx="61.337" cy="82.059" rx="4.039" ry="6.806" style="fill:rgb(216,76,21);"/>
    </g>
    <path d="M12.92,66.283C12.479,66.293 12.03,66.328 11.578,66.387C4.348,67.332 -0.824,74.113 0.108,81.432C0.95,88.032 6.488,92.923 12.87,93.129C17.834,92.456 17.116,92.596 17.976,92.486L60.583,87.7C62.84,87.446 63.854,83.564 63.563,81.284C63.273,79.004 62.202,76.057 59.95,76.351L41.704,78.734C32.579,79.695 27.736,80.386 20.278,82.876C18.89,83.369 17.856,84.262 16.606,85.05C15.202,85.8 14.95,85.933 12.616,85.981C9.793,85.695 7.482,83.509 7.101,80.518C6.655,77.023 9.027,73.912 12.48,73.461C15.763,73.033 17.407,79.401 18.573,79.191L25.355,77.962C25.343,72.104 19.196,66.127 12.921,66.282L12.92,66.283Z" style="fill:rgb(0,131,189);fill-rule:nonzero;"/>
    <g>
        <path d="M57.298,76.698L49.097,77.77L49.097,88.99L57.298,88.069L57.298,76.698ZM42.424,78.641L41.704,78.734C38.854,79.034 36.447,79.314 34.223,79.624L34.223,90.661L42.424,89.741L42.424,78.641ZM29.921,80.323C27.243,80.833 24.649,81.493 21.721,82.419L21.721,92.064L29.921,91.144L29.921,80.323ZM8.572,83.836L6.377,91.15C8.33,92.367 10.57,93.05 12.87,93.13C13.801,93.003 13.826,93.005 14.405,92.929L16.811,84.913C16.741,84.959 16.677,85.005 16.605,85.05C15.201,85.8 14.95,85.935 12.615,85.983C11.01,85.82 9.585,85.027 8.572,83.836ZM1.894,72.857C0.467,75.267 -0.172,78.063 0.064,80.853L7.808,82.74C7.439,82.048 7.2,81.295 7.101,80.518C6.803,78.179 7.771,76.018 9.476,74.705L1.894,72.857ZM20.395,68.941L13.216,73.492C16.014,74 17.498,79.386 18.572,79.192L19.93,78.945L25.05,75.7C24.383,73.125 22.654,70.693 20.394,68.942L20.395,68.941Z" style="fill:rgb(255,107,34);fill-opacity:0.85;fill-rule:nonzero;"/>
    </g>
    <g>
        <path d="M57.298,76.698L49.097,77.77L49.097,88.99L57.298,88.069L57.298,76.698ZM42.424,78.641L41.704,78.734C38.854,79.034 36.447,79.314 34.223,79.624L34.223,90.661L42.424,89.741L42.424,78.641ZM29.921,80.323C27.243,80.833 24.649,81.493 21.721,82.419L21.721,92.064L29.921,91.144L29.921,80.323ZM8.572,83.836L6.377,91.15C8.33,92.367 10.57,93.05 12.87,93.13C13.801,93.003 13.826,93.005 14.405,92.929L16.811,84.913C16.741,84.959 16.677,85.005 16.605,85.05C15.201,85.8 14.95,85.935 12.615,85.983C11.01,85.82 9.585,85.027 8.572,83.836ZM1.894,72.857C0.467,75.267 -0.172,78.063 0.064,80.853L7.808,82.74C7.439,82.048 7.2,81.295 7.101,80.518C6.803,78.179 7.771,76.018 9.476,74.705L1.894,72.857ZM20.395,68.941L13.216,73.492C16.014,74 17.498,79.386 18.572,79.192L19.93,78.945L25.05,75.7C24.383,73.125 22.654,70.693 20.394,68.942L20.395,68.941Z" style="fill:rgb(221,130,255);fill-opacity:0.85;fill-rule:nonzero;"/>
    </g>
    <path d="M7.7,75.366C7.9,75.223 8.051,75.061 8.15,74.889C8.694,73.995 7.998,72.747 7.692,71.58C7.346,70.19 7.222,68.717 6.775,67.368C6.278,65.907 5.205,66.134 4.352,66.79C3.427,67.506 2.42,68.031 1.477,68.723C0.632,69.337 -0.089,69.808 0.009,71.137C0.099,72.345 0.71,73.365 1.136,74.421C1.936,76.385 2.151,79.02 4.356,77.938C5.593,77.335 6.561,76.168 7.7,75.366ZM51.253,87.829C50.455,87.774 50.268,88.739 49.773,89.489C48.66,91.147 47.92,93.072 47.135,94.991C46.843,95.705 45.885,97.378 46.195,98.211C46.45,98.881 47.428,99.047 47.94,99.296L49.94,100.262C50.256,100.412 52.199,101.702 52.493,101.49C53.006,101.135 53.28,100.026 53.523,99.41C53.952,98.269 54.291,97.095 54.757,95.954C55.36,94.48 55.997,92.876 56.296,91.27C55.426,90.1 54.249,89.542 53.069,88.808C52.52,88.466 51.874,87.878 51.253,87.828L51.253,87.829Z" style="fill:rgb(80,231,64);fill-rule:nonzero;"/>
</svg>
